X:780
T:Reel 780
M:4/4
K:Amaj
L:1/8
D|EDEF EDCD|ECA,C B,G,B,C|EDEF ECA,C|B,G,E,C A,2A,C|EFEC A,CEC|DFEC DB,G,B,|CB,A,C A,B,CD|EAGE A2AF|EAAG A2GA|BGEF GEEG|EFGA B2BA|GEDB, CA,A,F|EAAG A2BA|GEEF G2FG|AcAG AFFA|GEDB, CA,B,G,|
